icons/core/bookmark-fill-slash.svg

<svg width="32" height="32" viewBox="0 0 32 32" fill="none" xmlns="http://www.w3.org/2000/svg">
<path fill-rule="evenodd" clip-rule="evenodd" d="M25.9999 4V16.4533L6.81788 2.3865C7.14901 2.14351 7.55769 2 7.99989 2H23.9999C25.1045 2 25.9999 2.89543 25.9999 4ZM5.99989 7.90676V29.1961V30.9282L7.49989 30.0622L15.9999 25.1547L24.4999 30.0622L25.9999 30.9282V29.1962V22.5734L30.4084 25.8064L31.5912 24.1936L1.59117 2.19355L0.408447 3.80636L5.99989 7.90676Z" fill="black"/>
</svg>

<svg viewBox="0 0 32 32" xmlns="http://www.w3.org/2000/svg"><path fill-rule="evenodd" d="M26 4v12.453L6.818 2.387C7.149 2.143 7.558 2 8 2h16a2 2 0 012 2zM6 7.907v23.021l1.5-.866 8.5-4.907 8.5 4.907 1.5.866v-8.355l4.408 3.233 1.183-1.612-30-22L.408 3.806 6 7.906z"/></svg>
